X:1
T:Del mio Sol
T:Del mio Sol
T:Enrico Radesca di Foggia
T:Source : Canzonette a 2 voci---Libro III---Venetia---G.Vincenti---1616. Editor : André Vierendeels (10/04/14). 
C:Enrico Radesca di Foggio
%%score [ 1 2 ] 3
L:1/8
Q:1/4=85
M:4/4
K:C
V:1 treble nm="Soprano" snm="S"
V:2 bass nm="Bass" snm="B"
V:3 bass nm="MusicXML Part"
V:1
 B2 c2 d4 | d2 c4 d2 | e4 d4 | c2 B2 A4 | A4 B2 c2 |[M:3/4] d4 B2 | A4 A2 |[M:4/4] G4 G4 :: %8
w: Del mio Sol|son ric- ciu|te- gli,|i ca- pe-|gli, non bion-|det- ti,|ma bru-|net- ti,|
w: Ma dal di|ch'io la mi-|ra- i,|fin qui ma-|i, non mi|vi- di'ho-|ra tran-|quil- la,|
w: Ben e ver,|ch'ei par- go-|leg- gia,|ch'ei vez- zeg-|gia, gra- ti-|o- so|fan- ciu-|let- to,|
w: Las- so me,|quan- do m'ac-|ce- si,|di re'in te-|si, ch'e- gli'al|tru- i,|non af-|fli- gea,|
w: Oh qual' i-|ra? Oh qual|sde- gno?|Mi fa se-|gno, ch'io non|di- ca'e|mi mi-|nac- cia,|
w: Non fu Dea|sua ge- ni-|tri- ce,|com' huom di-|ce, nac- que'in|Mar di|qual- che|sco- glio,|
w: non sai tu,|che gra- vi'af-|fan- ni?|Per tan- ti'an-|ni, ho sof-|fer- t'in|se- gui-|rar- ti?|
 F2 G2 A4 | A2 G4 G2 | A4 G4 | E2 E2 D4 | D4 E2 ^F2 |[M:3/4] G4 A2 | A4 A2 |[M:4/4] G4 G4 :| %16
w: son due ro-|se ver- mi-|gliuz- ze,|le got- tuz-|ze, le due|la- bra|ru- bi-|net- ti.|
w: che d'a- mor|non mi se'A-|mo- re,|in quel co-|re, ne pur|pic- cio|la fa-|vil- la.|
w: ma co- si|par- go- leg-|gian- do;|vez- zeg- gian-|do, non ci|las- cia|co- re'in|pet- to.|
w: e- che tut-|to'e- ra suo|fo- co,|ri- so'e gio-|co, e ch'ei|nac- que|d'u- na|De- a.|
w: vi- pe- ret-|ta, ser- pen-|tel- lo,|dra- gon- cel-|lo, qual ra-|gion vuol|ch'io mi|tac- cia.|
w: et ap- pre-|se'in quel- le|spu- me,|il co- stu-|me, di do-|nar pe-|na'e cor-|do- glio.|
w: E che? Dun-|que la- gri-|mo- so,|do- lo- ro-|so, an- go-|scio- s'ho|da lo-|dar- ti?|
V:2
 G,2 A,2 G,4 | F,2 E,4 D,2 | C,4 B,,4 | A,,2 G,,2 D,4 | D,4 G,,2 A,,2 |[M:3/4] B,,4 C,2 | D,4 D,2 | %7
w: Del mio Sol|son ric- ciu|te- gli,|i ca- pe-|gli, non bion-|det- ti,|ma bru-|
w: Ma dal di|ch'io la mi-|ra- i,|fin qui ma-|i, non mi|vi- di'ho-|ra tran-|
w: Ben e ver,|ch'ei par- go-|leg- gia,|ch'ei vez- zeg-|gia, gra- ti-|o- so|fan- ciu-|
w: Las- so me,|quan- do m'ac-|ce- si,|di re'in te-|si, ch'e gli'al-|tru- i,|non af-|
w: Oh qual' i-|ra? Oh qual|sde- gno?|Mi fa se-|gno, ch'io non|di- ca'e|mi mi-|
w: Non fu Dea|sua ge- ni-|tri- ce,|com' huom di-|ce, nac- que'in|Mar di|qual che|
w: non sai ti,|che gra- vi'af-|fan- ni?|Per tan- ti'an-|ni, ho sof-|fer- f'in|se- gui-|
[M:4/4] G,,4 G,,4 :: D,2 E,2 F,4 | D,2 E,4 E,2 | D,4 G,,4 | A,,2 A,,2 D,4 | D,4 C,2 D,2 | %13
w: net- ti,|son due ro-|se ver- mi-|gliuz- ze,|le got- tuz-|ze, le due|
w: quil- la,|che d'a- mor|non mi se'A-|mo- re,|in quel co|re, ne pur|
w: let- to,|ma co- si|par- go- leg-|gian- do,|vez- zeg- gian-|do, non ci|
w: fli- gea,|e che tut-|to'e- ra suo|fo- co,|ri- so'e gio-|co, e ch'ei|
w: nac- cia,|vi- pe- ret-|ta, ser- pen-|tel- lo,|dra- gon- cel-|lo, qual ra-|
w: sco- glio,|et ap- pre-|se'in quel- le|spu- me,|il co- stu-|me, di do-|
w: rar- ti?|E che? Dun-|que la- gri-|mo- so,|do- lo- ro-|so, an- go-|
[M:3/4] E,4 C,2 | D,4 D,2 |[M:4/4] G,,4 G,,4 :| %16
w: la- bra|nu- bi-|net- ti.|
w: pic- cio|la fa-|vil- la.|
w: las- cia|co- re'in|pet- to.|
w: nac- que|d'u- na|De- a.|
w: gion vuol|ch'io mi|tac- cia.|
w: nar pe-|na'e cor-|do- glio.|
w: scio- s'ho|da lo-|dar- ti?|
V:3
 G,2 A,2 G,4 | F,2 E,4 D,2 | C,4 B,,4 | A,,2 G,,2 D,4 | D,4 G,,2 A,,2 |[M:3/4] B,,4 C,2 | D,6 | %7
[M:4/4] G,,8 :: D,2 E,2 F,4 | D,2 E,6 | D,4 G,,4 | A,,4 D,4 | D,4 C,2 D,2 |[M:3/4] E,4 C,2 | D,6 | %15
[M:4/4] G,,8 :| %16

